apps/64/amazon-mp3-store-source.svg

<svg xmlns="http://www.w3.org/2000/svg" style="isolation:isolate" width="256" height="256"><defs><filter id="a" x="-200%" y="-200%" width="400%" height="400%" filterUnits="objectBoundingBox" color-interpolation-filters="sRGB"><feGaussianBlur xmlns="http://www.w3.org/2000/svg" in="SourceGraphic" stdDeviation="4.294"/><feOffset xmlns="http://www.w3.org/2000/svg" dy="4" result="pf_100_offsetBlur"/><feFlood xmlns="http://www.w3.org/2000/svg" flood-color="#000" flood-opacity=".4"/><feComposite xmlns="http://www.w3.org/2000/svg" in2="pf_100_offsetBlur" operator="in" result="pf_100_dropShadow"/><feBlend xmlns="http://www.w3.org/2000/svg" in="SourceGraphic" in2="pf_100_dropShadow"/></filter></defs><path d="M165.685 11.947c74.055 0 84.639 10.557 84.639 84.544v59.251c0 73.986-10.584 84.543-84.639 84.543h-75.37c-74.055 0-84.639-10.557-84.639-84.543V96.491c0-73.987 10.584-84.544 84.639-84.544h75.37z" fill="#D9D9D9" filter="url(#a)"/><g fill-rule="evenodd"><path d="M136.09 118.046c0 5.943.152 10.886-2.717 16.152-2.309 4.278-5.978 6.912-10.069 6.912-5.587 0-8.831-4.447-8.831-11.021 0-12.973 11.109-15.334 21.621-15.334v3.295m14.674 37.09c-.952.9-2.344.97-3.431.374-4.821-4.195-5.691-6.148-8.356-10.156-7.982 8.526-13.621 11.073-23.981 11.073-12.243 0-21.782-7.895-21.782-23.707 0-12.348 6.404-20.769 15.504-24.882 7.882-3.635 18.921-4.278 27.359-5.282v-1.97c0-3.617.274-7.895-1.747-11.021-1.783-2.804-5.178-3.957-8.17-3.957-5.552 0-10.495 2.974-11.699 9.139-.257 1.374-1.205 2.717-2.531 2.787L97.822 95.96c-1.187-.287-2.496-1.291-2.174-3.191C98.909 74.904 114.365 69.5 128.186 69.5c7.082 0 16.338 1.969 21.912 7.574 7.083 6.912 6.404 16.134 6.404 26.173v23.707c0 7.135 2.818 10.256 5.487 14.113.935 1.361 1.139 3.021-.035 4.043a695.957 695.957 0 0 0-11.156 10.104l-.052-.052" fill="#201F1F"/><path d="M173.654 168.166c-12.382 9.339-30.316 14.334-45.768 14.334-21.651 0-41.151-8.204-55.907-21.869-1.156-1.069-.117-2.53 1.274-1.7 15.913 9.496 35.612 15.2 55.942 15.2 13.703 0 28.803-2.904 42.663-8.952 2.104-.9 3.857 1.409 1.8 2.974" fill="#28851E"/><path d="M178.801 162.131c-1.578-2.074-10.46-.987-14.434-.491-1.222.152-1.408-.935-.304-1.717 7.065-5.096 18.682-3.635 20.021-1.918 1.361 1.718-.339 13.639-6.996 19.326-1.017.882-1.986.408-1.53-.748 1.478-3.822 4.839-12.382 3.243-14.452z" fill="#28851E"/></g><g opacity=".4"><linearGradient id="b" x1=".517" x2=".517" y2="1" gradientTransform="matrix(244.65 0 0 228.34 5.68 11.95)" gradientUnits="userSpaceOnUse"><stop offset="0%" stop-color="#fff"/><stop offset="12.5%" stop-opacity=".098" stop-color="#fff"/><stop offset="92.5%" stop-opacity=".098"/><stop offset="100%" stop-opacity=".498"/></linearGradient><path d="M165.068 11.951c4.328-.01 8.656.04 12.984.138 3.875.078 7.75.226 11.626.452 3.453.196 6.905.481 10.348.854 3.06.335 6.118.786 9.148 1.346a80.47 80.47 0 0 1 8.046 1.916 53.64 53.64 0 0 1 7.023 2.584 40.413 40.413 0 0 1 6.06 3.35 35.176 35.176 0 0 1 5.134 4.215 35.072 35.072 0 0 1 4.22 5.119 41.692 41.692 0 0 1 3.363 6.042 55.982 55.982 0 0 1 2.597 7.005 80.224 80.224 0 0 1 1.918 8.037 124.43 124.43 0 0 1 1.348 9.127c.374 3.439.659 6.878.856 10.326.226 3.861.373 7.732.462 11.593.088 4.323.138 8.646.128 12.96v58.21c.01 4.324-.04 8.637-.128 12.96a325.177 325.177 0 0 1-.462 11.593 200.984 200.984 0 0 1-.856 10.326 124.691 124.691 0 0 1-1.348 9.137 80.687 80.687 0 0 1-1.918 8.027 55.414 55.414 0 0 1-2.597 7.005 41.18 41.18 0 0 1-3.364 6.042 34.559 34.559 0 0 1-4.22 5.119 35.177 35.177 0 0 1-5.134 4.215 40.412 40.412 0 0 1-6.059 3.35 55.138 55.138 0 0 1-7.023 2.594 77.806 77.806 0 0 1-8.046 1.906 120 120 0 0 1-9.148 1.346c-3.443.373-6.895.658-10.348.854-3.875.226-7.75.374-11.626.462-4.328.088-8.656.138-12.984.128H90.942c-4.328.01-8.656-.04-12.984-.128a328.387 328.387 0 0 1-11.626-.462 203.003 203.003 0 0 1-10.348-.854 120 120 0 0 1-9.148-1.346 77.806 77.806 0 0 1-8.046-1.906 55.139 55.139 0 0 1-7.023-2.594 40.413 40.413 0 0 1-6.06-3.35 35.176 35.176 0 0 1-5.134-4.215 34.56 34.56 0 0 1-4.22-5.119 41.183 41.183 0 0 1-3.363-6.042 55.415 55.415 0 0 1-2.597-7.005 80.682 80.682 0 0 1-1.918-8.027 124.688 124.688 0 0 1-1.348-9.137 200.993 200.993 0 0 1-.856-10.326 325.212 325.212 0 0 1-.462-11.593 569.197 569.197 0 0 1-.128-12.96v-58.21c-.01-4.314.04-8.637.128-12.96.089-3.86.236-7.732.462-11.593.197-3.448.482-6.887.856-10.326.335-3.055.787-6.101 1.348-9.127a80.219 80.219 0 0 1 1.918-8.037 55.983 55.983 0 0 1 2.597-7.005 41.695 41.695 0 0 1 3.364-6.042 35.072 35.072 0 0 1 4.22-5.119 35.176 35.176 0 0 1 5.134-4.215 40.413 40.413 0 0 1 6.059-3.35 53.64 53.64 0 0 1 7.023-2.584 80.47 80.47 0 0 1 8.046-1.916 125.11 125.11 0 0 1 9.148-1.346c3.443-.373 6.895-.658 10.348-.854 3.875-.226 7.75-.374 11.626-.452 4.328-.098 8.656-.148 12.984-.138h74.126zm.01 4.009c4.298-.01 8.597.039 12.895.127 3.827.089 7.653.236 11.48.452 3.383.197 6.766.472 10.13.845 2.971.315 5.932.747 8.863 1.297a75.943 75.943 0 0 1 7.653 1.818 50.493 50.493 0 0 1 6.501 2.397 37.038 37.038 0 0 1 5.47 3.026 30.383 30.383 0 0 1 4.524 3.724 31.05 31.05 0 0 1 3.738 4.519 37.271 37.271 0 0 1 3.03 5.443 51.46 51.46 0 0 1 2.4 6.494 75.563 75.563 0 0 1 1.829 7.634c.54 2.928.974 5.875 1.298 8.842.374 3.36.65 6.73.846 10.11.217 3.822.374 7.634.453 11.456.088 4.293.137 8.577.137 12.87v58.212c0 4.293-.049 8.577-.137 12.87a317.503 317.503 0 0 1-.453 11.456c-.196 3.38-.472 6.75-.846 10.12a121.689 121.689 0 0 1-1.298 8.832 75.562 75.562 0 0 1-1.83 7.634 50.902 50.902 0 0 1-2.4 6.494 36.767 36.767 0 0 1-3.03 5.443 30.615 30.615 0 0 1-3.737 4.53 30.938 30.938 0 0 1-4.525 3.713 37.038 37.038 0 0 1-5.469 3.026 49.07 49.07 0 0 1-6.501 2.397 75.942 75.942 0 0 1-7.653 1.818c-2.931.55-5.892.982-8.863 1.306-3.364.364-6.747.649-10.13.836-3.827.216-7.653.373-11.48.452-4.298.098-8.597.137-12.895.137H90.932c-4.298 0-8.597-.04-12.895-.137a320.093 320.093 0 0 1-11.48-.452 193.696 193.696 0 0 1-10.13-.836 116.71 116.71 0 0 1-8.863-1.306 75.942 75.942 0 0 1-7.653-1.818 49.07 49.07 0 0 1-6.501-2.397 37.038 37.038 0 0 1-5.47-3.026 30.938 30.938 0 0 1-4.524-3.714 30.615 30.615 0 0 1-3.738-4.529 36.766 36.766 0 0 1-3.03-5.443 50.903 50.903 0 0 1-2.4-6.494 75.567 75.567 0 0 1-1.829-7.634 121.69 121.69 0 0 1-1.298-8.832c-.374-3.37-.65-6.74-.846-10.12a317.535 317.535 0 0 1-.453-11.456 623.851 623.851 0 0 1-.137-12.87V97.014c0-4.293.049-8.577.137-12.87.079-3.822.236-7.634.453-11.456.197-3.38.472-6.75.846-10.11.324-2.967.757-5.914 1.298-8.842a75.568 75.568 0 0 1 1.83-7.634 51.46 51.46 0 0 1 2.4-6.494 37.27 37.27 0 0 1 3.03-5.443 31.05 31.05 0 0 1 3.737-4.52 30.384 30.384 0 0 1 4.525-3.723 37.039 37.039 0 0 1 5.469-3.026 50.494 50.494 0 0 1 6.501-2.397 75.943 75.943 0 0 1 7.653-1.818c2.931-.55 5.892-.982 8.863-1.297 3.364-.373 6.747-.648 10.13-.845a344.71 344.71 0 0 1 11.48-.452c4.298-.088 8.597-.137 12.895-.127H165.078z" fill-rule="evenodd" fill="url(#b)"/></g></svg>

<?xml version="1.0" standalone="no"?><!-- Generator: Gravit.io --><svg xmlns="http://www.w3.org/2000/svg" xmlns:xlink="http://www.w3.org/1999/xlink" style="isolation:isolate" viewBox="0 0 256 256" width="256" height="256"><defs><filter id="GN9ApiEhxPLa4787kSYEpMzP5CL4qzrt" x="-200%" y="-200%" width="400%" height="400%" filterUnits="objectBoundingBox" color-interpolation-filters="sRGB"><feGaussianBlur xmlns="http://www.w3.org/2000/svg" in="SourceGraphic" stdDeviation="4.293609062839028"/><feOffset xmlns="http://www.w3.org/2000/svg" dx="0" dy="4" result="pf_100_offsetBlur"/><feFlood xmlns="http://www.w3.org/2000/svg" flood-color="#000000" flood-opacity="0.4"/><feComposite xmlns="http://www.w3.org/2000/svg" in2="pf_100_offsetBlur" operator="in" result="pf_100_dropShadow"/><feBlend xmlns="http://www.w3.org/2000/svg" in="SourceGraphic" in2="pf_100_dropShadow" mode="normal"/></filter></defs><g filter="url(#GN9ApiEhxPLa4787kSYEpMzP5CL4qzrt)"><path d=" M 165.628 11.952 C 239.684 11.952 250.267 22.509 250.267 96.495 L 250.267 155.746 C 250.267 229.733 239.684 240.29 165.628 240.29 L 90.259 240.29 C 16.203 240.29 5.619 229.733 5.619 155.746 L 5.619 96.495 C 5.619 22.509 16.203 11.952 90.259 11.952 L 165.628 11.952 Z " id="shape" fill="rgb(63,89,121)"/></g><g opacity="0.4"><linearGradient id="_lgradient_86" x1="0.5166666666666668" y1="0" x2="0.5166666666666666" y2="1.0000000000000002" gradientTransform="matrix(244.65,0,0,228.34,5.68,11.95)" gradientUnits="userSpaceOnUse"><stop offset="0%" stop-opacity="1" style="stop-color:rgb(255,255,255)"/><stop offset="12.5%" stop-opacity="0.09803922" style="stop-color:rgb(255,255,255)"/><stop offset="92.500001%" stop-opacity="0.09803922" style="stop-color:rgb(0,0,0)"/><stop offset="100%" stop-opacity="0.49803922" style="stop-color:rgb(0,0,0)"/></linearGradient><path d=" M 165.068 11.951 C 169.396 11.941 173.724 11.991 178.052 12.089 C 181.927 12.167 185.803 12.315 189.678 12.541 C 193.131 12.737 196.583 13.022 200.026 13.395 C 203.085 13.73 206.144 14.181 209.174 14.741 C 211.889 15.243 214.574 15.881 217.22 16.657 C 219.62 17.355 221.971 18.219 224.243 19.241 C 226.358 20.184 228.384 21.304 230.302 22.591 C 232.142 23.829 233.863 25.244 235.437 26.806 C 237.001 28.378 238.417 30.088 239.656 31.925 C 240.945 33.841 242.066 35.865 243.02 37.967 C 244.043 40.247 244.909 42.585 245.617 44.972 C 246.394 47.615 247.034 50.297 247.535 53.009 C 248.096 56.035 248.548 59.081 248.883 62.136 C 249.257 65.575 249.542 69.014 249.739 72.462 C 249.965 76.323 250.112 80.194 250.201 84.055 C 250.289 88.378 250.339 92.701 250.329 97.014 L 250.329 155.226 C 250.339 159.549 250.289 163.862 250.201 168.185 C 250.112 172.056 249.965 175.917 249.739 179.778 C 249.542 183.226 249.257 186.675 248.883 190.104 C 248.548 193.159 248.096 196.215 247.535 199.241 C 247.034 201.943 246.394 204.625 245.617 207.268 C 244.909 209.655 244.043 212.003 243.02 214.273 C 242.066 216.385 240.945 218.399 239.656 220.315 C 238.417 222.152 237.001 223.872 235.437 225.434 C 233.863 226.996 232.142 228.411 230.302 229.649 C 228.384 230.936 226.358 232.056 224.243 232.999 C 221.971 234.021 219.62 234.885 217.22 235.593 C 214.574 236.369 211.889 237.007 209.174 237.499 C 206.144 238.068 203.085 238.51 200.026 238.845 C 196.583 239.218 193.131 239.503 189.678 239.699 C 185.803 239.925 181.927 240.073 178.052 240.161 C 173.724 240.249 169.396 240.299 165.068 240.289 L 90.942 240.289 C 86.614 240.299 82.286 240.249 77.958 240.161 C 74.083 240.073 70.207 239.925 66.332 239.699 C 62.879 239.503 59.427 239.218 55.984 238.845 C 52.925 238.51 49.866 238.068 46.836 237.499 C 44.121 237.007 41.436 236.369 38.79 235.593 C 36.39 234.885 34.039 234.021 31.767 232.999 C 29.652 232.056 27.626 230.936 25.708 229.649 C 23.868 228.411 22.147 226.996 20.573 225.434 C 19.009 223.872 17.593 222.152 16.354 220.315 C 15.065 218.399 13.944 216.385 12.99 214.273 C 11.967 212.003 11.101 209.655 10.393 207.268 C 9.616 204.625 8.976 201.943 8.475 199.241 C 7.914 196.215 7.462 193.159 7.127 190.104 C 6.753 186.675 6.468 183.226 6.271 179.778 C 6.045 175.917 5.898 172.056 5.809 168.185 C 5.721 163.862 5.671 159.549 5.681 155.226 L 5.681 97.014 C 5.671 92.701 5.721 88.378 5.809 84.055 C 5.898 80.194 6.045 76.323 6.271 72.462 C 6.468 69.014 6.753 65.575 7.127 62.136 C 7.462 59.081 7.914 56.035 8.475 53.009 C 8.976 50.297 9.616 47.615 10.393 44.972 C 11.101 42.585 11.967 40.247 12.99 37.967 C 13.944 35.865 15.065 33.841 16.354 31.925 C 17.593 30.088 19.009 28.378 20.573 26.806 C 22.147 25.244 23.868 23.829 25.708 22.591 C 27.626 21.304 29.652 20.184 31.767 19.241 C 34.039 18.219 36.39 17.355 38.79 16.657 C 41.436 15.881 44.121 15.243 46.836 14.741 C 49.866 14.181 52.925 13.73 55.984 13.395 C 59.427 13.022 62.879 12.737 66.332 12.541 C 70.207 12.315 74.083 12.167 77.958 12.089 C 82.286 11.991 86.614 11.941 90.942 11.951 L 165.068 11.951 Z  M 165.078 15.96 C 169.376 15.95 173.675 15.999 177.973 16.087 C 181.8 16.176 185.626 16.323 189.452 16.539 C 192.836 16.736 196.219 17.011 199.583 17.384 C 202.554 17.699 205.515 18.131 208.446 18.681 C 211.023 19.153 213.58 19.762 216.099 20.499 C 218.322 21.147 220.495 21.953 222.6 22.896 C 224.509 23.751 226.338 24.763 228.069 25.922 C 229.692 27.013 231.207 28.26 232.594 29.646 C 233.981 31.031 235.23 32.544 236.332 34.165 C 237.492 35.894 238.506 37.712 239.361 39.608 C 240.306 41.72 241.112 43.892 241.761 46.102 C 242.509 48.617 243.109 51.162 243.591 53.736 C 244.132 56.664 244.565 59.611 244.889 62.578 C 245.263 65.938 245.539 69.308 245.735 72.688 C 245.952 76.51 246.109 80.322 246.188 84.144 C 246.276 88.437 246.325 92.721 246.325 97.014 C 246.325 97.014 246.325 97.014 246.325 97.014 L 246.325 155.226 C 246.325 155.226 246.325 155.226 246.325 155.226 C 246.325 159.519 246.276 163.803 246.188 168.096 C 246.109 171.918 245.952 175.74 245.735 179.552 C 245.539 182.932 245.263 186.302 244.889 189.672 C 244.565 192.629 244.132 195.576 243.591 198.504 C 243.109 201.078 242.509 203.623 241.761 206.138 C 241.112 208.358 240.306 210.52 239.361 212.632 C 238.506 214.528 237.492 216.356 236.332 218.075 C 235.23 219.706 233.981 221.219 232.594 222.604 C 231.207 223.98 229.692 225.227 228.069 226.318 C 226.338 227.477 224.509 228.489 222.6 229.344 C 220.495 230.297 218.322 231.093 216.099 231.741 C 213.58 232.478 211.023 233.087 208.446 233.559 C 205.515 234.109 202.554 234.541 199.583 234.865 C 196.219 235.229 192.836 235.514 189.452 235.701 C 185.626 235.917 181.8 236.074 177.973 236.153 C 173.675 236.251 169.376 236.29 165.078 236.29 C 165.078 236.29 165.078 236.29 165.068 236.29 L 90.942 236.29 C 90.932 236.29 90.932 236.29 90.932 236.29 C 86.634 236.29 82.335 236.251 78.037 236.153 C 74.21 236.074 70.384 235.917 66.558 235.701 C 63.174 235.514 59.791 235.229 56.427 234.865 C 53.456 234.541 50.495 234.109 47.564 233.559 C 44.987 233.087 42.43 232.478 39.911 231.741 C 37.688 231.093 35.515 230.297 33.41 229.344 C 31.501 228.489 29.672 227.477 27.941 226.318 C 26.318 225.227 24.803 223.98 23.416 222.604 C 22.029 221.219 20.78 219.706 19.678 218.075 C 18.518 216.356 17.504 214.528 16.649 212.632 C 15.704 210.52 14.898 208.358 14.249 206.138 C 13.501 203.623 12.901 201.078 12.419 198.504 C 11.878 195.576 11.445 192.629 11.121 189.672 C 10.747 186.302 10.472 182.932 10.275 179.552 C 10.058 175.74 9.901 171.918 9.822 168.096 C 9.734 163.803 9.685 159.519 9.685 155.226 C 9.685 155.226 9.685 155.226 9.685 155.226 L 9.685 97.014 C 9.685 97.014 9.685 97.014 9.685 97.014 C 9.685 92.721 9.734 88.437 9.822 84.144 C 9.901 80.322 10.058 76.51 10.275 72.688 C 10.472 69.308 10.747 65.938 11.121 62.578 C 11.445 59.611 11.878 56.664 12.419 53.736 C 12.901 51.162 13.501 48.617 14.249 46.102 C 14.898 43.892 15.704 41.72 16.649 39.608 C 17.504 37.712 18.518 35.894 19.678 34.165 C 20.78 32.544 22.029 31.031 23.416 29.646 C 24.803 28.26 26.318 27.013 27.941 25.922 C 29.672 24.763 31.501 23.751 33.41 22.896 C 35.515 21.953 37.688 21.147 39.911 20.499 C 42.43 19.762 44.987 19.153 47.564 18.681 C 50.495 18.131 53.456 17.699 56.427 17.384 C 59.791 17.011 63.174 16.736 66.558 16.539 C 70.384 16.323 74.21 16.176 78.037 16.087 C 82.335 15.999 86.634 15.95 90.932 15.96 C 90.932 15.96 90.932 15.96 90.942 15.96 L 165.068 15.96 C 165.078 15.96 165.078 15.96 165.078 15.96 Z " fill-rule="evenodd" id="highlight" fill="url(#_lgradient_86)"/></g><g id="Group"><g opacity="0.2"><path d=" M 138.059 120.309 C 138.059 127.703 138.248 133.852 134.678 140.403 C 131.806 145.726 127.241 149.003 122.151 149.003 C 115.201 149.003 111.165 143.47 111.165 135.292 C 111.165 119.152 124.985 116.214 138.064 116.214 L 138.064 120.314 M 156.318 166.458 C 155.134 167.578 153.403 167.664 152.051 166.923 C 146.052 161.704 144.97 159.275 141.655 154.288 C 131.723 164.895 124.709 168.064 111.819 168.064 C 96.587 168.064 84.72 158.242 84.72 138.569 C 84.72 123.208 92.687 112.731 104.008 107.614 C 113.815 103.092 127.548 102.291 138.047 101.042 L 138.047 98.592 C 138.047 94.091 138.387 88.769 135.872 84.88 C 133.654 81.391 129.43 79.958 125.709 79.958 C 118.802 79.958 112.651 83.658 111.153 91.328 C 110.834 93.037 109.655 94.708 108.005 94.795 L 90.448 92.831 C 88.971 92.474 87.343 91.225 87.743 88.861 C 91.8 66.636 111.029 59.912 128.224 59.912 C 137.035 59.912 148.55 62.362 155.485 69.335 C 164.297 77.935 163.453 89.407 163.453 101.896 L 163.453 131.391 C 163.453 140.267 166.958 144.151 170.279 148.949 C 171.442 150.642 171.696 152.708 170.236 153.979 C 166.536 157.235 159.97 163.19 156.356 166.55 L 156.291 166.485" fill-rule="evenodd" id="Compound Path" fill="rgb(0,0,0)"/></g><g opacity="0.2"><path d=" M 187.992 168.036 C 183.071 168.107 177.258 169.24 172.863 172.409 C 171.489 173.383 171.723 174.732 173.243 174.543 C 178.187 173.927 189.239 172.576 191.203 175.156 C 193.188 177.73 189.006 188.382 187.167 193.137 C 186.599 194.575 187.803 195.164 189.069 194.066 C 197.35 186.991 199.467 172.158 197.774 170.022 C 196.941 168.953 192.912 167.965 187.991 168.036 L 187.992 168.036 Z  M 58.707 170.888 C 57.681 171.026 57.227 172.299 58.306 173.297 C 76.655 190.295 100.923 200.5 127.854 200.5 C 147.078 200.5 169.378 194.285 184.784 182.667 L 184.794 182.646 C 187.353 180.699 185.172 177.829 182.555 178.948 C 165.31 186.472 146.528 190.083 129.479 190.083 C 104.187 190.083 79.678 182.986 59.882 171.172 C 59.45 170.914 59.041 170.841 58.699 170.887 L 58.707 170.888 Z " fill-rule="evenodd" id="Compound Path" fill="rgb(0,0,0)"/></g><path d=" M 138.059 115.896 C 138.059 123.29 138.248 129.44 134.678 135.991 C 131.806 141.313 127.241 144.591 122.151 144.591 C 115.201 144.591 111.165 139.058 111.165 130.88 C 111.165 114.739 124.985 111.802 138.064 111.802 L 138.064 115.902 M 156.318 162.046 C 155.134 163.166 153.403 163.252 152.051 162.511 C 146.052 157.291 144.97 154.863 141.655 149.875 C 131.723 160.482 124.709 163.652 111.819 163.652 C 96.587 163.652 84.72 153.83 84.72 134.157 C 84.72 118.796 92.687 108.319 104.008 103.201 C 113.815 98.679 127.548 97.879 138.047 96.629 L 138.047 94.179 C 138.047 89.679 138.387 84.357 135.872 80.468 C 133.654 76.979 129.43 75.546 125.709 75.546 C 118.802 75.546 112.651 79.245 111.153 86.916 C 110.834 88.625 109.655 90.296 108.005 90.383 L 90.448 88.419 C 88.971 88.062 87.343 86.813 87.743 84.449 C 91.8 62.224 111.029 55.5 128.224 55.5 C 137.035 55.5 148.55 57.95 155.485 64.922 C 164.297 73.523 163.453 84.995 163.453 97.484 L 163.453 126.979 C 163.453 135.855 166.958 139.738 170.279 144.537 C 171.442 146.23 171.696 148.296 170.236 149.567 C 166.536 152.823 159.97 158.778 156.356 162.138 L 156.291 162.073" fill-rule="evenodd" id="Compound Path" fill="rgb(255,255,255)"/><path d=" M 187.992 163.623 C 183.071 163.694 177.258 164.827 172.863 167.997 C 171.489 168.971 171.723 170.32 173.243 170.131 C 178.187 169.514 189.239 168.164 191.203 170.744 C 193.188 173.318 189.006 183.97 187.167 188.724 C 186.599 190.163 187.803 190.752 189.069 189.654 C 197.35 182.579 199.467 167.746 197.774 165.609 C 196.941 164.541 192.912 163.552 187.991 163.623 L 187.992 163.623 Z  M 58.707 166.476 C 57.681 166.613 57.227 167.886 58.306 168.884 C 76.658 185.89 100.923 196.091 127.859 196.091 C 147.083 196.091 169.384 189.876 184.789 178.258 L 184.799 178.237 C 187.358 176.29 185.178 173.42 182.56 174.54 C 165.316 182.064 146.533 185.674 129.485 185.674 C 104.192 185.674 79.683 178.577 59.888 166.764 C 59.455 166.505 59.047 166.432 58.704 166.478 L 58.707 166.476 Z " fill-rule="evenodd" id="Compound Path" fill="rgb(118,194,43)"/></g></svg>
